X: 29355
T: Newmarket
R: polka
M: 2/4
K: Dmajor
|:A2 Af|ed B/c/d|A2 Af|ed B2|
A2 Af|ed B/c/d|fa af|ed d2:|
|:f/g/a gf|ed B/c/d|Ad de|fe e2|
f/g/a gf|ed B/c/d|Ad de|fd d2:|

